logos/appium.svg

<?xml version="1.0" encoding="UTF-8"?>
<svg width="256px" height="256px" viewBox="0 0 256 256" version="1.1" xmlns="http://www.w3.org/2000/svg" xmlns:xlink="http://www.w3.org/1999/xlink">
    <g>
        <path d="M0.295,119.3972 C25.109,176.4012 88.073,185.9602 163.22,137.6432 C197.88,169.7222 206.515,207.7532 177.594,246.0352 C162.341,252.4512 145.586,255.9992 128,255.9992 C57.308,255.9992 -2.84217094e-14,198.6922 -2.84217094e-14,127.9992 C-2.84217094e-14,125.1082 0.106,122.2412 0.295,119.3972 Z M117.3535,94.6526 C128.5585,47.9576 159.8475,21.1736 209.0315,28.9156 C237.7015,52.3896 256.0005,88.0556 256.0005,127.9996 C256.0005,178.3946 226.8735,221.9786 184.5405,242.8566 C222.9965,188.0726 191.5705,130.2726 117.3535,94.6526 Z M128.0006,-1.42108547e-14 C155.4356,-1.42108547e-14 180.8516,8.635 201.6876,23.33 C131.7366,15.198 98.7036,73.505 103.3176,154.024 C57.8656,167.965 20.8376,157.693 1.2696,109.977 C10.0306,47.819 63.4266,-1.42108547e-14 128.0006,-1.42108547e-14 Z" fill="#662D91"></path>
    </g>
</svg>

<svg viewBox="0 0 256 256" xmlns="http://www.w3.org/2000/svg">
  <path fill="#662D91" d="M.295 119.397c24.814 57.004 87.778 66.563 162.925 18.246 34.66 32.08 43.295 70.11 14.374 108.392C162.341 252.451 145.586 256 128 256 57.308 256 0 198.692 0 128c0-2.89.106-5.758.295-8.602Zm117.058-24.744c11.206-46.695 42.495-73.48 91.678-65.737 28.67 23.474 46.97 59.14 46.97 99.084 0 50.395-29.127 93.979-71.46 114.857 38.456-54.784 7.03-112.584-67.188-148.204ZM128.001 0c27.435 0 52.85 8.635 73.687 23.33-69.951-8.132-102.984 50.175-98.37 130.694-45.452 13.941-82.48 3.669-102.048-44.047C10.03 47.819 63.427 0 128 0Z"/>
</svg>
